X:1
T:A pena in fu le porte
T:A pena in fu le porte
T:Marc'Antonio Tornioli
T:Source : Canzonette spirituale a tre voci---Libro Primo--Venetia---Ang.Gardano---1607. Editor : André Vierendeels (21/06/16)
T:Notes : Original clefs : C1, C1, F4 m 10 in S2 : "E" notated as half note in original print. 
T:©
T:©
C:Marc'Antonio Tornioli
Z:©
%%score [ 1 2 3 ]
L:1/8
Q:1/4=98
M:4/4
K:F
V:1 treble nm="Soprano 1" snm="S 1"
V:2 treble nm="Soprano 2" snm="S 2"
V:3 bass nm="Bass" snm="B"
V:1
 A4 =B2 c2 | c2 F2 E4 | DABc d2 d2 | c3 B c4 | d4 ^F2 FF | ^F4 c4 | d4 d4 | c8 | B4 A4- | A4 G4 | %10
w: A pe- na'in|fu le por-|te, dell' in- no- cen- te|vi- * *|ta, pu- ro Bam-|bin pro-|vi do-|lor|di mor-|* te,|
w: Gia de l'or-|to ver- mi-|glio, da la pia- ga fu-|ne- * *|sta, san- gui- gna'il|vol- to'e|la- cri-|mo-|sa'il ci-|* glio,|
 z4 =B4- | B4 ^G2 ^F2 | ^G2 A2 A2 G2 | A8 :: =B4 c2 d2 | c2 c2 c2 =B2 | c4 z4 | z2 F2 G3 A | %18
w: nel-|* la cru-|del fe- ri- *|ta.|E non ben|na- to'an- co- *|ra,|sa- cri col|
w: sor-|* ge do-|len- t'e me- *|sta:|E por- ta'in|fron- te fe- ri-|to,|il du- ro|
 ^FG A4 F2 | ABcB A4 | G8 :| %21
w: pian- * * to|del tuo di l'au- ro-|ra|
w: ca- * * so|del tuo gior- no'af- flit-|to.|
V:2
 z2 ^F2 G2 G2 | A2 =B2 c4 | =B2 z2 z FFG | A3 B B2 A2 | B4 z4 | A2 AA A4 | F4 B4 | G4 A3 G | F8 | %9
w: A pe- na'in|fu le por-|te, dell' in- no-|cen- te vi- *|ta,|pu- ro Bam- bin|pro- vi|do- lor di|mor-|
w: Gia de l'or-|to ver- mi-|glio, de la pia-|ga fu- ne- *|sta,|san- gui- gna'il vol-|to'e la|cri- mo- sa'il|ci-|
 E8 | D4 d2 d2 | d4 c4 | =B8 | A8 :: z2 D2 E2 F2 | A2 A2 D4 | E2 F2 G3 A | F6 E2 | D2 D2 ^FGAG | %19
w: te,|nel- la cru-|del fe-|ri-|ta.|E non ben|na- to'an- co-|ra, sa- cri col|pian- *|* to del tuo di l'au-|
w: glio,|so- ge do-|len- t'e|me-|sta:|E por- ta'in|fron- te fe-|ri- * to, il|du- ro|ca- so del tuo gior- no'af-|
 ^F2 G4 F2 | G8 :| %21
w: ro- * *|ra.|
w: flit- * *|to.|
V:3
 D,4 G,2 E,2 | F,2 D,2 C,4 | G,G,G,A, B,2 B,2 | A,3 G, F,4 | B,,4 D,2 D,D, | D,4 A,,4 | B,,4 G,,4 | %7
w: A pe- na'in|fu le por-|te, dell' in- no- cen- te|vi- * *|ta, pu- ro Bam-|bin pro-|vi do-|
w: Gia de l'or-|to ver- mi-|glio, de la pia- ga fu-|ne- * *|sta, san- gui- gna'il|vol- to'e|la- cri-|
 _E,4 F,4 | D,8 | C,8 | G,8 | E,2 E,2 E,4 | z2 ^D,2 E,4 | A,,8 :: G,,4 C,2 B,,2 | A,,2 F,,2 G,,4 | %16
w: lor di|mor-|te,|nel-|la cru- del|fe- ri-|ta.|E non ben|na- to'an- co-|
w: mo- sa'il|ci-|glio,|sor-|ge do- len-|t'e me-|sta:|E por- ta'in|fron- te fe-|
 C,2 D,2 E,3 F, | D,4 C,4 | D,E,F,E, D,4- | D,2 C,2 D,4 | G,,8 :| %21
w: ra, sa- cri col|pian- to|del tuo di l'au- ro-||ra.|
w: ri- * to, il|du- ro|ca- so del tuo gior-|* no'af- flit-|to.|

